public/icons/svg/home.svg

<?xml version="1.0" encoding="UTF-8" standalone="no"?>
<svg width="572px" height="499px" viewBox="0 0 572 499" version="1.1" xmlns="http://www.w3.org/2000/svg" xmlns:xlink="http://www.w3.org/1999/xlink" xmlns:sketch="http://www.bohemiancoding.com/sketch/ns">
    <!-- Generator: Sketch 3.0.4 (8054) - http://www.bohemiancoding.com/sketch -->
    <title>discover</title>
    <desc>Created with Sketch.</desc>
    <defs></defs>
    <g id="Page-1" stroke="none" stroke-width="1" fill="none" fill-rule="evenodd" sketch:type="MSPage">
        <g id="discover" sketch:type="MSLayerGroup" transform="translate(1.000000, 1.000000)">
            <path d="M491.972196,100.395447 C458.890801,95.1047801 425.809406,91.1367801 392.066382,88.4914467 L461.537313,19.0514467 C463.522196,17.0674467 464.845452,13.7607801 464.845452,11.1154467 C464.845452,8.47011341 463.522196,5.16344674 461.537313,3.17944674 C456.905917,-1.44988659 450.289638,-1.44988659 445.658243,3.17944674 L362.954754,85.8461134 L352.368708,62.6994467 L284.882661,62.6994467 L217.396615,62.6994467 L206.810568,85.8461134 L124.10708,3.17944674 C122.122196,1.19544674 118.814057,-0.127219926 116.167545,-0.127219926 C113.521033,-0.127219926 110.212894,1.19544674 108.22801,3.17944674 C103.596615,7.80878007 103.596615,14.4221134 108.22801,19.0514467 L177.69894,88.4914467 C144.617545,91.1367801 110.874522,95.1047801 77.7931265,100.395447 C34.1256846,107.670113 -0.278966552,145.366113 -0.278966552,180.41678 L-0.278966552,400.64078 C-0.278966552,435.691447 34.1256846,473.387447 77.7931265,480.662113 C214.750103,502.486113 355.676847,502.486113 492.633824,480.662113 C536.301266,473.387447 570.705917,435.691447 570.705917,400.64078 L570.705917,180.41678 C570.705917,145.366113 535.639638,107.670113 491.972196,100.395447 L491.972196,100.395447 Z" id="Shape" fill="#000000" sketch:type="MSShapeGroup"></path>
            <g id="Group" transform="translate(81.762894, 197.611447)" fill="#FFFFFF" sketch:type="MSShapeGroup">
                <path d="M-1.98488372,95.8933333 C-1.98488372,68.7786667 7.27790698,46.2933333 25.8034884,27.776 C44.3290698,9.25866667 66.8244186,0 93.9511628,0 C106.522093,0 117.769767,2.64533333 129.67907,7.27466667 C140.926744,11.904 151.512791,18.5173333 160.113953,27.776 C169.376744,37.0346667 176.654651,46.9546667 181.286047,58.8586667 C185.917442,70.7626667 188.563953,82.6666667 188.563953,95.232 C188.563953,108.458667 186.57907,120.362667 181.947674,132.266667 C177.316279,144.170667 170.7,154.090667 162.098837,163.349333 C152.836047,172.608 142.911628,179.882667 131.002326,185.173333 C119.093023,190.464 107.183721,192.448 93.9511628,192.448 C80.0569767,192.448 67.4860465,189.802667 56.2383721,185.173333 C44.3290698,180.544 34.4046512,173.269333 25.1418605,163.349333 C16.5406977,154.090667 9.9244186,144.170667 5.95465116,132.266667 C0.661627907,121.024 -1.98488372,109.12 -1.98488372,95.8933333 L-1.98488372,95.8933333 Z M93.9511628,37.696 C77.4104651,37.696 64.177907,42.9866667 52.9302326,54.2293333 C41.6825581,65.472 36.3895349,79.36 36.3895349,95.232 C36.3895349,111.104 42.344186,124.992 53.5918605,136.896 C64.8395349,148.8 78.7337209,154.752 93.9511628,154.752 C109.830233,154.752 123.724419,148.8 134.310465,137.557333 C145.55814,126.314667 150.851163,111.765333 150.851163,94.5706667 C150.851163,78.6986667 145.55814,65.472 134.310465,54.2293333 C122.401163,43.648 109.168605,37.696 93.9511628,37.696 L93.9511628,37.696 Z" id="Shape"></path>
                <path d="M218.337209,95.8933333 C218.337209,68.7786667 227.6,46.2933333 246.125581,27.776 C264.651163,9.25866667 287.146512,0 314.273256,0 C326.844186,0 338.09186,2.64533333 350.001163,7.27466667 C361.248837,11.904 371.834884,18.5173333 380.436047,27.776 C389.698837,37.0346667 396.976744,46.9546667 401.60814,58.8586667 C406.239535,70.7626667 408.886047,82.6666667 408.886047,95.232 C408.886047,108.458667 406.901163,120.362667 402.269767,132.266667 C397.638372,144.170667 391.022093,154.090667 382.42093,163.349333 C373.15814,172.608 363.233721,179.882667 351.324419,185.173333 C339.415116,190.464 327.505814,192.448 314.273256,192.448 C300.37907,192.448 287.80814,189.802667 276.560465,185.173333 C265.312791,180.544 254.726744,173.269333 245.463953,163.349333 C236.862791,154.090667 230.246512,144.170667 226.276744,132.266667 C220.322093,121.024 218.337209,109.12 218.337209,95.8933333 L218.337209,95.8933333 Z M313.611628,37.696 C297.07093,37.696 283.838372,42.9866667 272.590698,54.2293333 C261.343023,65.472 256.05,79.36 256.05,95.232 C256.05,111.104 262.004651,124.992 273.252326,136.896 C284.5,148.8 298.394186,154.752 313.611628,154.752 C329.490698,154.752 343.384884,148.8 353.97093,137.557333 C365.218605,126.314667 370.511628,111.765333 370.511628,94.5706667 C370.511628,78.6986667 365.218605,65.472 353.97093,54.2293333 C342.723256,43.648 329.490698,37.696 313.611628,37.696 L313.611628,37.696 Z" id="Shape"></path>
            </g>
        </g>
    </g>
</svg>

<?xml version="1.0" encoding="utf-8"?>
<!-- Generator: Adobe Illustrator 16.0.0, SVG Export Plug-In . SVG Version: 6.00 Build 0)  -->
<!DOCTYPE svg PUBLIC "-//W3C//DTD SVG 1.1//EN" "http://www.w3.org/Graphics/SVG/1.1/DTD/svg11.dtd">
<svg version="1.1" id="Layer_1" xmlns:sketch="http://www.bohemiancoding.com/sketch/ns"
	 xmlns="http://www.w3.org/2000/svg" xmlns:xlink="http://www.w3.org/1999/xlink" x="0px" y="0px" width="572px" height="499px"
	 viewBox="0 0 572 499" enable-background="new 0 0 572 499" xml:space="preserve">
<title>discover</title>
<desc>Created with Sketch.</desc>
<g id="Page-1" sketch:type="MSPage">
	<g id="discover" transform="translate(1.000000, 1.000000)" sketch:type="MSLayerGroup">
		<path id="Shape" sketch:type="MSShapeGroup" fill="#FFFFFF" d="M491.973,100.396c-33.082-5.291-66.163-9.259-99.906-11.904
			l69.471-69.44c1.985-1.984,3.309-5.291,3.309-7.936c0-2.645-1.323-5.952-3.309-7.936c-4.631-4.629-11.247-4.629-15.879,0
			l-82.703,82.667l-10.586-23.147h-67.486h-67.486l-10.586,23.147L124.107,3.18c-1.985-1.984-5.293-3.307-7.939-3.307
			s-5.955,1.322-7.939,3.307c-4.631,4.629-4.631,11.242,0,15.872l69.471,69.44c-33.081,2.646-66.824,6.614-99.906,11.904
			c-43.667,7.274-78.072,44.971-78.072,80.021v220.224c0,35.051,34.404,72.747,78.072,80.021
			c136.957,21.824,277.884,21.824,414.841,0c43.667-7.274,78.072-44.971,78.072-80.021V180.417
			C570.706,145.366,535.64,107.67,491.973,100.396L491.973,100.396z"/>
		<g id="Group" transform="translate(81.762894, 197.611447)" sketch:type="MSShapeGroup">
			<path id="Shape_1_" fill="#FFFFFF" d="M-1.985,95.893c0-27.114,9.263-49.6,27.789-68.117C44.329,9.259,66.825,0,93.951,0
				c12.571,0,23.819,2.646,35.728,7.275c11.248,4.629,21.834,11.243,30.435,20.501c9.263,9.258,16.541,19.178,21.172,31.083
				c4.631,11.903,7.278,23.808,7.278,36.373c0,13.227-1.985,25.131-6.616,37.034c-4.631,11.904-11.248,21.824-19.849,31.083
				c-9.263,9.259-19.188,16.533-31.097,21.824c-11.909,5.29-23.818,7.274-37.051,7.274c-13.894,0-26.465-2.646-37.712-7.274
				c-11.91-4.63-21.834-11.904-31.097-21.824c-8.601-9.259-15.217-19.179-19.187-31.083C0.661,121.024-1.985,109.12-1.985,95.893
				L-1.985,95.893z M93.951,37.696c-16.541,0-29.773,5.291-41.021,16.533C41.682,65.473,36.389,79.36,36.389,95.232
				s5.955,29.76,17.202,41.664c11.248,11.903,25.142,17.855,40.359,17.855c15.879,0,29.773-5.952,40.359-17.194
				c11.248-11.243,16.541-25.792,16.541-42.987c0-15.871-5.293-29.098-16.541-40.341C122.401,43.648,109.169,37.696,93.951,37.696
				L93.951,37.696z"/>
			<path id="Shape_2_" fill="#FFFFFF" d="M218.337,95.893c0-27.114,9.264-49.6,27.789-68.117C264.651,9.259,287.146,0,314.273,0
				c12.571,0,23.818,2.646,35.728,7.275c11.248,4.629,21.834,11.243,30.436,20.501c9.263,9.258,16.54,19.178,21.172,31.083
				c4.631,11.903,7.277,23.808,7.277,36.373c0,13.227-1.984,25.131-6.616,37.034c-4.631,11.904-11.247,21.824-19.849,31.083
				c-9.263,9.259-19.188,16.533-31.097,21.824c-11.909,5.29-23.818,7.274-37.051,7.274c-13.894,0-26.465-2.646-37.713-7.274
				c-11.247-4.63-21.833-11.904-31.097-21.824c-8.602-9.259-15.217-19.179-19.188-31.083
				C220.322,121.024,218.337,109.12,218.337,95.893L218.337,95.893z M313.612,37.696c-16.541,0-29.773,5.291-41.021,16.533
				C261.343,65.473,256.05,79.36,256.05,95.232s5.955,29.76,17.203,41.664c11.247,11.903,25.142,17.855,40.359,17.855
				c15.879,0,29.772-5.952,40.358-17.194c11.248-11.243,16.541-25.792,16.541-42.987c0-15.871-5.293-29.098-16.541-40.341
				C342.723,43.648,329.491,37.696,313.612,37.696L313.612,37.696z"/>
		</g>
	</g>
</g>
</svg>
